storage/app/icons/phosphoricons/duotone/line-segments-duotone.svg

<svg xmlns="http://www.w3.org/2000/svg" fill="currentColor" viewBox="0 0 256 256"><path d="M57 183a24 24 0 1 1-34 0 24 24 0 0 1 34 0M79 79a24 24 0 1 0 34 0 24 24 0 0 0-34 0m64 64a24 24 0 1 0 34 0 24 24 0 0 0-34 0m90-104a24 24 0 1 0 0 34 24 24 0 0 0 0-34" opacity=".2"/><path d="M238.64 33.36a32 32 0 0 0-45.26 0 32 32 0 0 0 0 45.26c.29.29.6.57.9.85l-26.63 49.46a32.2 32.2 0 0 0-23.9 3.5l-20.18-20.18a32 32 0 0 0-50.2-38.89 32 32 0 0 0 0 45.26c.29.29.59.57.89.85l-26.63 49.47a32 32 0 0 0-30.27 8.44 32 32 0 1 0 45.26 0c-.29-.29-.6-.57-.9-.85l26.63-49.46A32.4 32.4 0 0 0 96 128a32 32 0 0 0 16.25-4.41l20.18 20.18a32 32 0 1 0 50.2-6.38c-.29-.29-.59-.57-.89-.85l26.63-49.46A32.3 32.3 0 0 0 216 88a32 32 0 0 0 22.63-54.62ZM51.3 211.33a16 16 0 0 1-22.63-22.64 16 16 0 1 1 22.63 22.64m33.38-104a16 16 0 0 1 0-22.63 16 16 0 1 1 0 22.63m86.64 64a16 16 0 0 1-22.63-22.63 16 16 0 0 1 22.63 22.63m56-104a16 16 0 1 1-22.62-22.66 16 16 0 0 1 22.63 22.64Z"/></svg>

<svg xmlns="http://www.w3.org/2000/svg" viewBox="0 0 256 256" fill="currentColor"><path d="M57,183A24,24,0,1,1,23,183,24,24,0,0,1,57,183ZM79,79A24,24,0,1,0,113,79,24,24,0,0,0,79,79Zm64,64A24,24,0,1,0,177,143,24,24,0,0,0,143,143ZM233,39A24,24,0,1,0,233,73,24,24,0,0,0,233,39Z" opacity="0.2"/><path d="M238.64,33.36a32,32,0,0,0-45.26,0h0a32,32,0,0,0,0,45.26c.29.29.6.57.9.85l-26.63,49.46a32.19,32.19,0,0,0-23.9,3.5l-20.18-20.18a32,32,0,0,0-50.2-38.89h0a32,32,0,0,0,0,45.26c.29.29.59.57.89.85L47.63,168.94a32,32,0,0,0-30.27,8.44h0a32,32,0,1,0,45.26,0c-.29-.29-.6-.57-.9-.85l26.63-49.46A32.4,32.4,0,0,0,96,128a32,32,0,0,0,16.25-4.41l20.18,20.18a32,32,0,1,0,50.2-6.38c-.29-.29-.59-.57-.89-.85l26.63-49.46A32.33,32.33,0,0,0,216,88a32,32,0,0,0,22.63-54.62ZM51.3,211.33a16,16,0,0,1-22.63-22.64h0A16,16,0,1,1,51.3,211.33Zm33.38-104a16,16,0,0,1,0-22.63h0a16,16,0,1,1,0,22.63Zm86.64,64a16,16,0,0,1-22.63-22.63h0a16,16,0,0,1,22.63,22.63Zm56-104A16,16,0,1,1,204.7,44.67h0a16,16,0,0,1,22.63,22.64Z"/></svg>
